X:1
T:Alors je luy respon
T:Alors je luy respon
T:Jean de Castro
T:Source : Livre de chansons à 3 parties---Paris---A.le Roy & R.Ballard---1575. Editor : André Vierendeels (30/01/16).
T:Notes : Original clefs : C1, C3, C4 This is the "seconde partie" after the chanson "Quand je veux " by the same composer
T:©
T:©
T:©
T:©
T:©
C:Jean de Castro
Z:©
%%score [ 1 2 3 ]
L:1/8
Q:1/4=106
M:2/2
K:C
V:1 treble nm="Soprano" snm="S"
V:2 treble nm="Alto" snm="A"
V:3 treble-8 nm="Tenor" snm="T"
V:1
 G4 A4 | c2 B4 A2 | G2 c4 B2 | d4 c2 A2 | G4 z2 c2- | c2 B2 c4 | A2 F2 G4 | z2 D4 A2 | G2 c4 A2- | %9
w: A- lors|je luy res-|pon, quant à|moy, quant à|moy, quant|_ à moy,|je ne scay|je ne|scay si j'ay|
 A2 B4 c2- | c2 A2 ^G2 G2 | A4 z2 B2 | c4 z2 G2 | c6 c2 | A2 G2 A4 | B4 z4 | z2 G2 A2 B2 | %17
w: _ loeil chas-|* si- eux, si|j'ay, si|j'ay, si|l'ay per-|du cou- ra-|ge,|si mes che-|
 c4 z2 A2 | G2 F2 E4 | z2 A2 G2 G2 |[M:3/2] F4 E4 D4 | d4 B2 B2 G4 | c4 A4 A4 | F2 F2 G2 G2 E4 | %24
w: veux si|mes che- veux,|si mes che-|veux sont noirs,|si mes che- veux,|si mes, si|mes che- veux sont noirs|
[M:2/2] z4 z2 G2 | A4 B4 | c4 A4 | B8 | z8 | z4 G4- | G2 c4 B2 | c2 A2 G4 | z2 G2 B2 A2- | %33
w: ou|si blancs|je les|ay,||car|_ ja- mays|je n'ap- prins|de mi- rer|
 A2 c4 B2 | A2 GF E4 | F4 G4 | z4 c4 | B4 A4 | d4 B4 | A8 | !fermata!G8 |] %41
w: _ mon vi-|sa- * * *|* ge,|de|mi- rer|mon vi-|sa-|ge.|
V:2
 z2 G4 F2 | E4 D2 F2 | EDEF G4 | z2 G4 F2 | E2 D4 C2 | D4 z4 | z2 F4 E2 | D2 B,4 A,2 | E4 C4 | %9
w: A- lors|je luy res-|pon, _ _ _ _|a- lors|je luy res-|pon,|quant à|moy, je ne|scay si|
 D4 E4 | A,4 B,4 | C4 z2 G2 | A4 z2 E2 | A6 E2 | ^F2 G2 F4 | G2 G2 F2 D2 | E2 E2 F2 D2 | %17
w: j'ay loeil|chas- si-|eux, si|j'ay, si|j'ay per-|du cou- ra-|ge, si mes che-|veux, si mes che-|
 C2 C2 D2 D2 | E2 C4 B,2- | B,2 A,2 E4 |[M:3/2] z4 A4 F2 F2 | D4 G4 E4 | E4 C2 C2 A,4 | D8 ^C4 | %24
w: veux, si mes che-|veux, si mes|_ che- veux|si mes che-|veux sont noirs,|si mes che- veux|sont noirs|
[M:2/2] z4 E4 | ^F4 G4 | G4 ^F4 | G4 z2 D2 | G6 E2 | C2 D2 E4 | z2 E2 F2 G2 | A2 F2 E4 | %32
w: ou|si blancs|je les|ay, car|ja- mays|je n'ap- prins|car ja- mays|je n'ap- prins|
 z2 E2 ^F4 | A4 D3 D | F2 ED C4 | D2 F4 E2- | E2 D2 E2 F2 | G4 F2 E2 | D4 G4- | G2 ^FE F4 | %40
w: de mi-|rer mon vi-|sa- * * *|ge, de mi-|* rer mon vi-|sa- * *|||
 !fermata!G8 |] %41
w: ge.|
V:3
 z8 | z8 | c2 A2 G4 | z2 G2 A4 | c2 B4 A2 | G4 z2 F2- | F2 D2 C4 | G6 F2 | E2 A4 F2- | F2 G4 A2- | %10
w: ||Quant à moy,|a- lors|je luy res-|pon, quant|_ à moy,|je ne|scay si j'ay|_ loeil chas-|
 A2 F2 E4 | z2 A2 G4 | z2 F2 c4 | A2 f4 c2 | d8 | G2 G2 A2 B2 | c4 z4 | z2 A2 G2 F2 | E2 A4 G2- | %19
w: * si- eux,|si j'ay,|si j'ay|per- du cou-|ra-|ge, si mes che-|veux,|si mes che-|veux, si mes|
 G2 F2 E4 |[M:3/2] D4 A4 d4 | B2 B2 G4 c4 | A4 A4 F2 F2 | D4 G4 A4 |[M:2/2] z4 c4 | A4 G4 | C4 D4 | %27
w: _ che- veux|sont noirs, si|mes che- veux sont|noirs, si mes che-|veux sont noirs|ou|si blancs|je les|
 G4 z2 G2- | G2 C2 c4 | A2 B2 c4 | z8 | z4 C4 | E4 D4 |"^-natural" F4 G4 | A8 | D4 z2 c2 | B4 A4 | %37
w: ay, car|_ ja- mays|je n'ap- prins||de|mi- rer|mon vi-|sa-|ge, de|mi- rer|
 e4 A4 | B6 c2 | d8 | !fermata!G8 |] %41
w: mon vi-|sa- *|ge.|_|

